packages/kaspersky-hexa-ui-icons/src/iconsSVGs/16x12/FlagCw.svg

<svg width="16" height="12" viewBox="0 0 16 12" fill="none" xmlns="http://www.w3.org/2000/svg">
<g clip-path="url(#clip0_41916_337)">
<rect width="16" height="12" rx="2" fill="white"/>
<rect width="16" height="12" fill="#002B7F"/>
<rect x="-1.27313" y="7.61853" width="18.9983" height="1.4936" fill="#F9E814"/>
<path fill-rule="evenodd" clip-rule="evenodd" d="M4.14749 4.72336L3.26834 5.35979L3.60195 4.327L2.725 3.68755L3.81033 3.68569L4.14749 2.65405L4.48465 3.68569L5.56998 3.68755L4.69302 4.327L5.02663 5.35979L4.14749 4.72336Z" fill="white"/>
<path fill-rule="evenodd" clip-rule="evenodd" d="M1.81857 2.55107L1.27568 2.94408L1.48169 2.30632L0.940163 1.91145L1.61037 1.9103L1.81857 1.27325L2.02677 1.9103L2.69697 1.91145L2.15544 2.30632L2.36145 2.94408L1.81857 2.55107Z" fill="white"/>
</g>
<defs>
<clipPath id="clip0_41916_337">
<rect width="16" height="12" rx="2" fill="white"/>
</clipPath>
</defs>
</svg>

<svg xmlns="http://www.w3.org/2000/svg" width="16" height="12" fill="none" viewBox="0 0 16 12"><g clip-path="url(#a)"><rect width="16" height="12" fill="#fff" rx="2"/><path fill="#002b7f" d="M0 0h16v12H0z"/><path fill="#f9e814" d="M-1.2731 7.6185h18.9983v1.4936H-1.2731z"/><path fill="#fff" fill-rule="evenodd" d="m4.148 4.723-.879.636.334-1.033-.877-.639 1.085-.002.337-1.032.337 1.032 1.085.002-.877.64.334 1.033zM1.819 2.551l-.543.393.206-.638-.541-.395.67-.001.208-.637.208.637.67.001-.542.395.206.638z" clip-rule="evenodd"/></g><defs><clipPath id="a"><rect width="16" height="12" fill="#fff" rx="2"/></clipPath></defs></svg>
